X:1
T:Alfeland
T:Alfeland
T:Klewe
C:Klewe
%%score [ 1 2 3 4 ]
L:1/8
Q:1/4=100
M:3/4
K:G
V:1 treble-8 nm="T1"
V:2 treble-8 nm="T2"
V:3 bass nm="B1"
V:4 bass nm="B2"
V:1
!mf!"^Moderato" D2 |!<(! G4 B2!<)! | d4 d2 | e3 f e2 | d4 d2 | c3 d c2 |!>(! B3 A!>)! G2 | %7
w: Til-|havs, i|Vest for|Hel- ge- lands|Skjær der|svöm- mer en|Ø paa de|
!<(! A2 ^c2 f2!<)! |!>(! e2 d2!>)!!mf! D2 |!<(! G3 G B2!<)! | d4 d2 |!f! e3 f e2 | d4 d2 | %13
w: skin- nen- de|Vo- ver; men|kom- mer en-|gang en|Sei- ler den|nær, da|
!>(! d3 ^c!>)! B2 |!<(! A2 ^c2 f2!<)! |!>(! e6!>)! | d2 z2 z2 | z6 | z2 z2!mf! d2 | d3 d d2 | %20
w: sæn- ker sig|Sky- er der-|o-|ver;||og|skjult _ er|
 (d2 e2) f2 | g3 f e2 | f4 z2 | z6 | z2 z2!mf! B2 | B3 B B2 |!<(! B2 ^c2 ^d2!<)! | e6 | e4!mf! e2 | %29
w: da _ den|vin- ken- de|Strand,||og|in- gen kan|Ø- en be-|sti-|ge, med|
 g4 g2 | f4 B2 | e2 (ef) e2 | e2 d2 d2 | c3 d c2 |!<(! B2 d2 g2!<)! |!f! (a6- |!>(! a2 g2) f2!>)! | %37
w: Tan- ken|kun tör|Kyst- bo- * en|hi- ge mod|Vest til det|dei- li- ge|Al-|* * fe-|
 g6- | g2 z2 |] %39
w: land.|_|
V:2
!mf! D2 |!<(! D4 G2!<)! | B4 d2 | ^c3 c c2 | (d2 =c2) B2 | A2 A2 A2 |!>(! A2 (GF)!>)! G2 | %7
w: Til-|havs, i|Vest for|Hel- ge- lands|Skjær _ der|svöm- mer en|Ø paa _ de|
!<(! G2 E2 ^c2!<)! |!>(! A2 A2!>)!!mf! D2 |!<(! D3 D G2!<)! | B4 d2 |!f! ^c3 c c2 | d2 =c2 B2 | %13
w: skin- nen- de|Vo- ver; men|kom- mer en-|gang en|Sei- ler den|nær, _ da|
!>(! A3 G!>)! F2 |!<(! E2 A2 ^c2!<)! |!>(! ^c6!>)! | A2 z2 z2 | z6 | z2 z2!mf! A2 | A3 B c2 | %20
w: sæn- ker sig|Sky- er der-|o-|ver;||og|skjult _ er|
 c4 c2 | B2 (ed) (^cB) | ^A4 z2 | z6 | z2 z2!mf! F2 | F3 G A2 |!<(! A2 A2 A2!<)! | (G2 Be dc) | %28
w: da den|vin- ken- * de _|Strand,||og|in- gen kan|Ø- en be-|sti- * * * *|
 B4!mf! c2 | B4 B2 | c4 B2 | B2 A2 A2 | A2 d2 B2 | B2 A2 A2 |!<(! B2 B2 B2!<)! |!f! (A2 c2 e2 | %36
w: ge, med|Tan- ken|kun tör|Kyst- bo- en|hi- ge mod|Vest til det|dei- li- ge|Al- * *|
!>(! d4) d2!>)! | d6- | d2 z2 |] %39
w: * fe-|land.|_|
V:3
!mf! D,2 |!<(! D,4 D,2!<)! | G,4 B,2 | ^A,3 A, A,2 | (B,2 =A,2) G,2 | G,2 F,2 F,2 | %6
w: Til-|havs, i|Vest for|Hel- ge- lands|Skjær _ der|svöm- mer en|
!>(! D,2 D,2!>)! D,2 |!<(! (^C,E,) A,2 A,2!<)! |!>(! G,2 F,2!>)!!mf! D,2 |!<(! D,3 D, D,2!<)! | %10
w: Ø paa de|skin- * ne- nde|Vo- ver; men|kom- mer en-|
 G,4 B,2 |!f! ^A,3 A, A,2 | B,2 =A,2 G,2 |!>(! F,3 E,!>)! D,2 |!<(! ^C,2 E,2 A,2!<)! | %15
w: gang en|Sei- ler den|nær, _ da|sæn- ker sig|Sky- er der-|
!>(! G,6!>)! | F,2 z2!mf! A,2 | A,3- A, A,2 | (A,2 B,2) C2 | C3 B, A,2 | A,4 A,2 | G,2 B,2 (B,^C) | %22
w: o-|ver; og|skjult _ er|da _ den|vin- ken- de|Strand, den|vin- ken- de _|
 ^C4!mf! F,2 | F,3 F, F,2 | F,2 G,2 A,2 | A,3 G, F,2 |!<(! F,2 F,2 F,2!<)! | (G,4 A,2) | %28
w: Strand, og|in- gen kan|Ø- en be-|sti- ge, kan|Ø- en be-|sti- *|
 G,4!mf! G,2 | E,4 E,2 | E,4 ^D,2 | E,2 A,2 G,2 | F,2 G,2 G,2 | G,2 F,2 F,2 |!<(! G,2 G,2 G,2!<)! | %35
w: ge, med|Tan- ken|kun tör|Kyst- bo- en|hi- ge mod|Vest til det|dei- li- ge|
!f! (E,4 G,2 |!>(! F,2 A,2) C2!>)! | B,6- | B,2 z2 |] %39
w: Al- *|* * fe-|land.|_|
V:4
!mf! D,2 |!<(! B,,4 G,,2!<)! | G,4 G,2 | G,3 G, G,2 | G,4 G,,2 | D,2 D,2 D,2 | %6
w: Til-|havs, i|Vest for|Hel- ge- lands|Skjær der|svöm- mer en|
!>(! G,,3 A,,!>)! B,,2 |!<(! ^C,2 A,,2 A,,2!<)! |!>(! D,2 D,2!>)!!mf! D,2 |!<(! B,,3 B,, G,,2!<)! | %10
w: Ø paa de|skin- nen- de|Vo- ver; men|kom- mer en-|
 G,4 G,2 |!f! G,3 G, G,2 | G,4 G,,2 |!>(! A,,3 A,,!>)! A,,2 |!<(! A,,2 A,,2 A,,2!<)! | %15
w: gang en|Sei- ler den|nær, da|sæn- ker sig|Sky- er der-|
!>(! A,,6!>)! | D,2 z2 z2 | z6 | z2 z2!mf! A,2 | A,3 G, F,2 | (F,2 E,2) D,2 | E,3 F, G,2 | F,4 z2 | %23
w: o-|ver;||og|skjult _ er|da _ den|vin- ken- de|Strand,|
 z6 | z2 z2!mf! F,2 | F,3 E, ^D,2 |!<(! ^D,2 ^C,2 B,,2!<)! | E,6 | E,4!mf! C,2 | G,,4 G,,2 | %30
w: |og|in- gen kan|Ø- en be-|sti-|ge, med|Tan- ken|
 A,,4 B,,2 | C,2 C,2 C,2 | C,2 B,,2 G,2 | E,2 F,2 D,2 |!<(! G,2 G,2 E,2!<)! |!f! (C,6 | %36
w: kun tör|Kyst- bo- en|hi- ge mod|Vest til det|dei- li- ge|Al-|
!>(! D,4) D,2!>)! | [G,,G,]6- | [G,,G,]2 z2 |] %39
w: * fe-|land.|_|

